X:53
T:Master McDermott's
R:Reel
S:Tony Smith, Cavan (fiddle)
Z:Bernie Stocks
N:As played
M:4/4
K:D
DF(3.F.F.F DEFA | df{a}fe dBBd | AF(3.F.F.F DF(3.F.F.F | BFAF EGFE |
DF(3.F.F.F DEFA | df{a}fe dBBd | AF(3.F.F.F BFAF | EGFE +D3A,3+E |
DF(3.F.F.F DEFA | df{a}fe dBBd | AF(3.F.F.F DEFA | BdAF EA,B,C |
DF(3.F.F.F DEFA | df{a}fe dBBd | AF(3.F.F.F BFAF | EGFE D2FA ||
df~f2 dfaf | gabg af{a}fe | dB{d}BA Bcde | fa{b}af efde |
fa{b}af gabg | af{a}fe dBBd | AF(3.F.F.F BFAF | EGFE D2FA |
df~f2 dfaf | g2bg af{a}fe | dfed Bcde | fa{b}af (3efede |
fa{b}af gabg | af{a}fe dBBd | AF(3.F.F.F BFAF | EGFE D2FE ||
<end>
<start>
